GamblingFront/public/images/provider/spribe.svg

<svg width="120" height="80" viewBox="0 0 120 80" fill="none" xmlns="http://www.w3.org/2000/svg">
<path fill-rule="evenodd" clip-rule="evenodd" d="M0.171875 47.096V44.6224H6.69997V47.5011C6.69997 50.1358 7.71797 51.4539 9.75253 51.4539H9.77834C11.7943 51.4539 12.8037 50.1401 12.8037 47.5139C12.8037 46.0133 12.3692 44.6067 11.4975 43.293C10.6272 41.9792 9.58621 40.7781 8.37465 39.6897L5.10272 36.3132C3.75064 35.132 2.61937 33.6685 1.70891 31.9239C0.797012 30.1778 0.341064 28.245 0.341064 26.1252C0.341064 22.8628 1.20134 20.3608 2.92191 18.6162C4.64103 16.8716 6.97813 16 9.93033 16C12.8825 16 15.1494 16.8716 16.7323 18.6147C18.3152 20.3579 19.1067 22.86 19.1067 26.1209V27.4147H13.0861V25.7286C13.0861 23.0854 12.0222 21.763 9.89305 21.763C7.76385 21.763 6.69997 23.0868 6.69997 25.7315C6.69997 26.8384 6.93225 27.894 7.39537 28.8983C7.85848 29.9025 8.45925 30.8069 9.19765 31.6143C9.93606 32.4203 10.7505 33.2177 11.6394 34.0051C12.5284 34.794 13.4073 35.6199 14.2733 36.4829C15.1393 37.3459 15.9408 38.2689 16.6764 39.2546C17.4105 40.2388 18.0084 41.4029 18.47 42.7438C18.9317 44.0861 19.1626 45.5439 19.1626 47.1202C19.1626 50.374 18.3525 52.8704 16.7323 54.6093C15.1121 56.3482 12.8252 57.2183 9.87154 57.2183C6.91791 57.2183 4.56217 56.3467 2.80577 54.6036C1.04936 52.8604 0.171875 50.3569 0.171875 47.096Z" fill="white"/>
<path fill-rule="evenodd" clip-rule="evenodd" d="M29.1402 35.8804H32.164C33.1993 35.8804 33.9764 35.5894 34.4954 35.0089C35.013 34.4283 35.2725 33.444 35.2725 32.056V26.012C35.2725 24.624 35.013 23.6455 34.4954 23.0734C33.9764 22.5014 33.1993 22.2161 32.164 22.2161H29.1402V35.8804ZM22.7812 56.7699V16.4531H32.1497C38.4699 16.4531 41.6314 19.784 41.6314 26.4442V31.6809C41.6314 38.3226 38.4728 41.6449 32.1569 41.6449H29.1402V56.7699H22.7812Z" fill="white"/>
<path fill-rule="evenodd" clip-rule="evenodd" d="M50.9566 34.6127H53.4428C54.7246 34.6127 55.6809 34.2846 56.3118 33.6284C56.9427 32.9722 57.2581 31.8767 57.2581 30.3389V26.3747C57.2768 23.6016 56.2028 22.2136 54.0364 22.2136H50.9566V34.6127ZM44.5977 56.7674V16.4492H54.1927C57.4646 16.4492 59.8547 17.2095 61.3588 18.7287C62.8643 20.248 63.617 22.5831 63.617 25.7342V28.9124C63.617 33.0578 62.2291 35.7867 59.4533 37.099C62.2664 38.2816 63.6729 41.1417 63.6729 45.6808V51.8846V52.137C63.6729 54.1955 63.8995 55.7389 64.3511 56.7674H57.9048C57.5305 55.6262 57.3341 53.9801 57.3155 51.8275V45.5124C57.3155 43.6794 56.99 42.3642 56.3405 41.5696C55.6895 40.7737 54.63 40.3771 53.1603 40.3771H50.9566V56.7674H44.5977Z" fill="white"/>
<path fill-rule="evenodd" clip-rule="evenodd" d="M67.8555 56.7674H74.2144V16.4492H67.8555V56.7674Z" fill="white"/>
<path fill-rule="evenodd" clip-rule="evenodd" d="M85.2066 51.0069H88.8527C89.9639 51.0069 90.7927 50.7116 91.3389 50.121C91.8852 49.5305 92.1591 48.5048 92.1591 47.0427V43.5278C92.1591 41.6905 91.8436 40.4167 91.2113 39.7048C90.5804 38.9916 89.5309 38.6364 88.0613 38.6364H85.2066V51.0069ZM85.2066 32.872H87.7042C88.9904 32.872 89.951 32.5439 90.5847 31.8877C91.2199 31.2315 91.5368 30.1445 91.5368 28.6268V26.3772C91.5554 23.6041 90.4772 22.2161 88.3007 22.2161H85.2066V32.872ZM78.8477 56.7713V16.4531H88.457C91.7347 16.4531 94.1277 17.212 95.6346 18.7298C97.1415 20.2476 97.8957 22.5813 97.8957 25.731V27.1646C97.8957 31.3071 96.5207 34.016 93.7692 35.2899C96.9351 36.5266 98.5165 39.4053 98.5165 43.9215V47.211C98.5165 50.3222 97.6978 52.6944 96.059 54.3249C94.4187 55.9554 92.0171 56.7713 88.8527 56.7713H78.8477Z" fill="white"/>
<path fill-rule="evenodd" clip-rule="evenodd" d="M102.332 56.7674V16.4492H119.684V22.2136H108.691V33.4315H117.423V39.1945H108.691V51.003H119.684V56.7674H102.332Z" fill="white"/>
<path fill-rule="evenodd" clip-rule="evenodd" d="M0 64.9764H119.773V59.3789H0V64.9764Z" fill="white"/>
<path fill-rule="evenodd" clip-rule="evenodd" d="M0.171875 47.096V44.6224H6.69997V47.5011C6.69997 50.1358 7.71797 51.4539 9.75253 51.4539H9.77834C11.7943 51.4539 12.8037 50.1401 12.8037 47.5139C12.8037 46.0133 12.3692 44.6067 11.4975 43.293C10.6272 41.9792 9.58621 40.7781 8.37465 39.6897L5.10272 36.3132C3.75064 35.132 2.61937 33.6685 1.70891 31.9239C0.797012 30.1778 0.341064 28.245 0.341064 26.1252C0.341064 22.8628 1.20134 20.3608 2.92191 18.6162C4.64103 16.8716 6.97813 16 9.93033 16C12.8825 16 15.1494 16.8716 16.7323 18.6147C18.3152 20.3579 19.1067 22.86 19.1067 26.1209V27.4147H13.0861V25.7286C13.0861 23.0854 12.0222 21.763 9.89305 21.763C7.76385 21.763 6.69997 23.0868 6.69997 25.7315C6.69997 26.8384 6.93225 27.894 7.39537 28.8983C7.85848 29.9025 8.45925 30.8069 9.19765 31.6143C9.93606 32.4203 10.7505 33.2177 11.6394 34.0051C12.5284 34.794 13.4073 35.6199 14.2733 36.4829C15.1393 37.3459 15.9408 38.2689 16.6764 39.2546C17.4105 40.2388 18.0084 41.4029 18.47 42.7438C18.9317 44.0861 19.1626 45.5439 19.1626 47.1202C19.1626 50.374 18.3525 52.8704 16.7323 54.6093C15.1121 56.3482 12.8252 57.2183 9.87154 57.2183C6.91791 57.2183 4.56217 56.3467 2.80577 54.6036C1.04936 52.8604 0.171875 50.3569 0.171875 47.096Z" fill="white"/>
<path fill-rule="evenodd" clip-rule="evenodd" d="M29.1402 35.8804H32.164C33.1993 35.8804 33.9764 35.5894 34.4954 35.0089C35.013 34.4283 35.2725 33.444 35.2725 32.056V26.012C35.2725 24.624 35.013 23.6455 34.4954 23.0734C33.9764 22.5014 33.1993 22.2161 32.164 22.2161H29.1402V35.8804ZM22.7812 56.7699V16.4531H32.1497C38.4699 16.4531 41.6314 19.784 41.6314 26.4442V31.6809C41.6314 38.3226 38.4728 41.6449 32.1569 41.6449H29.1402V56.7699H22.7812Z" fill="white"/>
<path fill-rule="evenodd" clip-rule="evenodd" d="M50.9566 34.6127H53.4428C54.7246 34.6127 55.6809 34.2846 56.3118 33.6284C56.9427 32.9722 57.2581 31.8767 57.2581 30.3389V26.3747C57.2768 23.6016 56.2028 22.2136 54.0364 22.2136H50.9566V34.6127ZM44.5977 56.7674V16.4492H54.1927C57.4646 16.4492 59.8547 17.2095 61.3588 18.7287C62.8643 20.248 63.617 22.5831 63.617 25.7342V28.9124C63.617 33.0578 62.2291 35.7867 59.4533 37.099C62.2664 38.2816 63.6729 41.1417 63.6729 45.6808V51.8846V52.137C63.6729 54.1955 63.8995 55.7389 64.3511 56.7674H57.9048C57.5305 55.6262 57.3341 53.9801 57.3155 51.8275V45.5124C57.3155 43.6794 56.99 42.3642 56.3405 41.5696C55.6895 40.7737 54.63 40.3771 53.1603 40.3771H50.9566V56.7674H44.5977Z" fill="white"/>
<path fill-rule="evenodd" clip-rule="evenodd" d="M67.8555 56.7674H74.2144V16.4492H67.8555V56.7674Z" fill="white"/>
<path fill-rule="evenodd" clip-rule="evenodd" d="M85.2066 51.0069H88.8527C89.9639 51.0069 90.7927 50.7116 91.3389 50.121C91.8852 49.5305 92.1591 48.5048 92.1591 47.0427V43.5278C92.1591 41.6905 91.8436 40.4167 91.2113 39.7048C90.5804 38.9916 89.5309 38.6364 88.0613 38.6364H85.2066V51.0069ZM85.2066 32.872H87.7042C88.9904 32.872 89.951 32.5439 90.5847 31.8877C91.2199 31.2315 91.5368 30.1445 91.5368 28.6268V26.3772C91.5554 23.6041 90.4772 22.2161 88.3007 22.2161H85.2066V32.872ZM78.8477 56.7713V16.4531H88.457C91.7347 16.4531 94.1277 17.212 95.6346 18.7298C97.1415 20.2476 97.8957 22.5813 97.8957 25.731V27.1646C97.8957 31.3071 96.5207 34.016 93.7692 35.2899C96.9351 36.5266 98.5165 39.4053 98.5165 43.9215V47.211C98.5165 50.3222 97.6978 52.6944 96.059 54.3249C94.4187 55.9554 92.0171 56.7713 88.8527 56.7713H78.8477Z" fill="white"/>
<path fill-rule="evenodd" clip-rule="evenodd" d="M102.332 56.7674V16.4492H119.684V22.2136H108.691V33.4315H117.423V39.1945H108.691V51.003H119.684V56.7674H102.332Z" fill="white"/>
<path fill-rule="evenodd" clip-rule="evenodd" d="M0 64.9764H119.773V59.3789H0V64.9764Z" fill="white"/>
<path fill-rule="evenodd" clip-rule="evenodd" d="M0.171875 47.096V44.6224H6.69997V47.5011C6.69997 50.1358 7.71797 51.4539 9.75253 51.4539H9.77834C11.7943 51.4539 12.8037 50.1401 12.8037 47.5139C12.8037 46.0133 12.3692 44.6067 11.4975 43.293C10.6272 41.9792 9.58621 40.7781 8.37465 39.6897L5.10272 36.3132C3.75064 35.132 2.61937 33.6685 1.70891 31.9239C0.797012 30.1778 0.341064 28.245 0.341064 26.1252C0.341064 22.8628 1.20134 20.3608 2.92191 18.6162C4.64103 16.8716 6.97813 16 9.93033 16C12.8825 16 15.1494 16.8716 16.7323 18.6147C18.3152 20.3579 19.1067 22.86 19.1067 26.1209V27.4147H13.0861V25.7286C13.0861 23.0854 12.0222 21.763 9.89305 21.763C7.76385 21.763 6.69997 23.0868 6.69997 25.7315C6.69997 26.8384 6.93225 27.894 7.39537 28.8983C7.85848 29.9025 8.45925 30.8069 9.19765 31.6143C9.93606 32.4203 10.7505 33.2177 11.6394 34.0051C12.5284 34.794 13.4073 35.6199 14.2733 36.4829C15.1393 37.3459 15.9408 38.2689 16.6764 39.2546C17.4105 40.2388 18.0084 41.4029 18.47 42.7438C18.9317 44.0861 19.1626 45.5439 19.1626 47.1202C19.1626 50.374 18.3525 52.8704 16.7323 54.6093C15.1121 56.3482 12.8252 57.2183 9.87154 57.2183C6.91791 57.2183 4.56217 56.3467 2.80577 54.6036C1.04936 52.8604 0.171875 50.3569 0.171875 47.096Z" fill="white"/>
<path fill-rule="evenodd" clip-rule="evenodd" d="M29.1402 35.8804H32.164C33.1993 35.8804 33.9764 35.5894 34.4954 35.0089C35.013 34.4283 35.2725 33.444 35.2725 32.056V26.012C35.2725 24.624 35.013 23.6455 34.4954 23.0734C33.9764 22.5014 33.1993 22.2161 32.164 22.2161H29.1402V35.8804ZM22.7812 56.7699V16.4531H32.1497C38.4699 16.4531 41.6314 19.784 41.6314 26.4442V31.6809C41.6314 38.3226 38.4728 41.6449 32.1569 41.6449H29.1402V56.7699H22.7812Z" fill="white"/>
<path fill-rule="evenodd" clip-rule="evenodd" d="M50.9566 34.6127H53.4428C54.7246 34.6127 55.6809 34.2846 56.3118 33.6284C56.9427 32.9722 57.2581 31.8767 57.2581 30.3389V26.3747C57.2768 23.6016 56.2028 22.2136 54.0364 22.2136H50.9566V34.6127ZM44.5977 56.7674V16.4492H54.1927C57.4646 16.4492 59.8547 17.2095 61.3588 18.7287C62.8643 20.248 63.617 22.5831 63.617 25.7342V28.9124C63.617 33.0578 62.2291 35.7867 59.4533 37.099C62.2664 38.2816 63.6729 41.1417 63.6729 45.6808V51.8846V52.137C63.6729 54.1955 63.8995 55.7389 64.3511 56.7674H57.9048C57.5305 55.6262 57.3341 53.9801 57.3155 51.8275V45.5124C57.3155 43.6794 56.99 42.3642 56.3405 41.5696C55.6895 40.7737 54.63 40.3771 53.1603 40.3771H50.9566V56.7674H44.5977Z" fill="white"/>
<path fill-rule="evenodd" clip-rule="evenodd" d="M67.8555 56.7674H74.2144V16.4492H67.8555V56.7674Z" fill="white"/>
<path fill-rule="evenodd" clip-rule="evenodd" d="M85.2066 51.0069H88.8527C89.9639 51.0069 90.7927 50.7116 91.3389 50.121C91.8852 49.5305 92.1591 48.5048 92.1591 47.0427V43.5278C92.1591 41.6905 91.8436 40.4167 91.2113 39.7048C90.5804 38.9916 89.5309 38.6364 88.0613 38.6364H85.2066V51.0069ZM85.2066 32.872H87.7042C88.9904 32.872 89.951 32.5439 90.5847 31.8877C91.2199 31.2315 91.5368 30.1445 91.5368 28.6268V26.3772C91.5554 23.6041 90.4772 22.2161 88.3007 22.2161H85.2066V32.872ZM78.8477 56.7713V16.4531H88.457C91.7347 16.4531 94.1277 17.212 95.6346 18.7298C97.1415 20.2476 97.8957 22.5813 97.8957 25.731V27.1646C97.8957 31.3071 96.5207 34.016 93.7692 35.2899C96.9351 36.5266 98.5165 39.4053 98.5165 43.9215V47.211C98.5165 50.3222 97.6978 52.6944 96.059 54.3249C94.4187 55.9554 92.0171 56.7713 88.8527 56.7713H78.8477Z" fill="white"/>
<path fill-rule="evenodd" clip-rule="evenodd" d="M102.332 56.7674V16.4492H119.684V22.2136H108.691V33.4315H117.423V39.1945H108.691V51.003H119.684V56.7674H102.332Z" fill="white"/>
<path fill-rule="evenodd" clip-rule="evenodd" d="M0 64.9764H119.773V59.3789H0V64.9764Z" fill="white"/>
</svg>

<svg version="1.2" xmlns="http://www.w3.org/2000/svg" viewBox="0 0 120 80" width="120" height="80"><style>.a{fill:#fff}</style><path fill-rule="evenodd" class="a" d="m0.2 47.1v-2.5h6.5v2.9q0 4 3.1 4 3 0 3-4 0-2.2-1.3-4.2-1.3-2-3.1-3.6l-3.3-3.4q-2-1.8-3.4-4.4-1.4-2.6-1.4-5.8 0-4.9 2.6-7.5 2.6-2.6 7-2.6 4.5 0 6.8 2.6 2.4 2.6 2.4 7.5v1.3h-6v-1.7q0-3.9-3.2-3.9-3.2 0-3.2 3.9 0 1.7 0.7 3.2 0.7 1.5 1.8 2.7 1.1 1.2 2.4 2.4 1.4 1.2 2.7 2.5 1.3 1.3 2.4 2.8 1.1 1.4 1.8 3.4 0.7 2.1 0.7 4.4 0 4.9-2.5 7.5-2.4 2.6-6.8 2.6-4.5 0-7.1-2.6-2.6-2.6-2.6-7.5z"/><path fill-rule="evenodd" class="a" d="m22.8 56.8v-40.3h9.3q9.5 0 9.5 9.9v5.3q0 9.9-9.4 9.9h-3.1v15.2zm6.4-20.9h3q1.6 0 2.4-0.9 0.7-0.9 0.7-2.9v-6.1q0-2.1-0.7-2.9-0.8-0.9-2.4-0.9h-3z"/><path fill-rule="evenodd" class="a" d="m44.6 56.8v-40.4h9.6q4.9 0 7.2 2.3 2.2 2.3 2.2 7v3.2q0 6.2-4.1 8.2 4.2 1.8 4.2 8.6v6.4q0 3.1 0.7 4.7h-6.5q-0.6-1.7-0.6-5v-6.3q0-2.7-1-3.9-0.9-1.2-3.1-1.2h-2.2v16.4zm6.3-22.2h2.5q1.9 0 2.9-1 0.9-1 0.9-3.3v-3.9q0-4.2-3.2-4.2h-3.1z"/><path fill-rule="evenodd" class="a" d="m67.9 56.8h6.3v-40.4h-6.3z"/><path fill-rule="evenodd" class="a" d="m78.8 56.8v-40.3h9.7q4.9 0 7.1 2.2 2.3 2.3 2.3 7v1.5q0 6.2-4.1 8.1 4.7 1.8 4.7 8.6v3.3q0 4.7-2.4 7.1-2.5 2.5-7.2 2.5zm6.3-23.9h2.5q1.9 0 2.9-1 0.9-1 0.9-3.3v-2.2q0.1-4.2-3.2-4.2h-3.1zm0 18.2h3.7q1.6 0 2.4-0.9 0.9-0.9 0.9-3.1v-3.5q0-2.8-1-3.9-0.9-1-3.1-1h-2.9z"/><path fill-rule="evenodd" class="a" d="m102.3 56.8v-40.4h17.4v5.8h-11v11.2h8.7v5.8h-8.7v11.8h11v5.8z"/><path fill-rule="evenodd" class="a" d="m0 65h119.8v-5.6h-119.8z"/><path fill-rule="evenodd" class="a" d="m0.2 47.1v-2.5h6.5v2.9q0 4 3.1 4 3 0 3-4 0-2.2-1.3-4.2-1.3-2-3.1-3.6l-3.3-3.4q-2-1.8-3.4-4.4-1.4-2.6-1.4-5.8 0-4.9 2.6-7.5 2.6-2.6 7-2.6 4.5 0 6.8 2.6 2.4 2.6 2.4 7.5v1.3h-6v-1.7q0-3.9-3.2-3.9-3.2 0-3.2 3.9 0 1.7 0.7 3.2 0.7 1.5 1.8 2.7 1.1 1.2 2.4 2.4 1.4 1.2 2.7 2.5 1.3 1.3 2.4 2.8 1.1 1.4 1.8 3.4 0.7 2.1 0.7 4.4 0 4.9-2.5 7.5-2.4 2.6-6.8 2.6-4.5 0-7.1-2.6-2.6-2.6-2.6-7.5z"/><path fill-rule="evenodd" class="a" d="m22.8 56.8v-40.3h9.3q9.5 0 9.5 9.9v5.3q0 9.9-9.4 9.9h-3.1v15.2zm6.4-20.9h3q1.6 0 2.4-0.9 0.7-0.9 0.7-2.9v-6.1q0-2.1-0.7-2.9-0.8-0.9-2.4-0.9h-3z"/><path fill-rule="evenodd" class="a" d="m44.6 56.8v-40.4h9.6q4.9 0 7.2 2.3 2.2 2.3 2.2 7v3.2q0 6.2-4.1 8.2 4.2 1.8 4.2 8.6v6.4q0 3.1 0.7 4.7h-6.5q-0.6-1.7-0.6-5v-6.3q0-2.7-1-3.9-0.9-1.2-3.1-1.2h-2.2v16.4zm6.3-22.2h2.5q1.9 0 2.9-1 0.9-1 0.9-3.3v-3.9q0-4.2-3.2-4.2h-3.1z"/><path fill-rule="evenodd" class="a" d="m67.9 56.8h6.3v-40.4h-6.3z"/><path fill-rule="evenodd" class="a" d="m78.8 56.8v-40.3h9.7q4.9 0 7.1 2.2 2.3 2.3 2.3 7v1.5q0 6.2-4.1 8.1 4.7 1.8 4.7 8.6v3.3q0 4.7-2.4 7.1-2.5 2.5-7.2 2.5zm6.3-23.9h2.5q1.9 0 2.9-1 0.9-1 0.9-3.3v-2.2q0.1-4.2-3.2-4.2h-3.1zm0 18.2h3.7q1.6 0 2.4-0.9 0.9-0.9 0.9-3.1v-3.5q0-2.8-1-3.9-0.9-1-3.1-1h-2.9z"/><path fill-rule="evenodd" class="a" d="m102.3 56.8v-40.4h17.4v5.8h-11v11.2h8.7v5.8h-8.7v11.8h11v5.8z"/><path fill-rule="evenodd" class="a" d="m0 65h119.8v-5.6h-119.8z"/><path fill-rule="evenodd" class="a" d="m0.2 47.1v-2.5h6.5v2.9q0 4 3.1 4 3 0 3-4 0-2.2-1.3-4.2-1.3-2-3.1-3.6l-3.3-3.4q-2-1.8-3.4-4.4-1.4-2.6-1.4-5.8 0-4.9 2.6-7.5 2.6-2.6 7-2.6 4.5 0 6.8 2.6 2.4 2.6 2.4 7.5v1.3h-6v-1.7q0-3.9-3.2-3.9-3.2 0-3.2 3.9 0 1.7 0.7 3.2 0.7 1.5 1.8 2.7 1.1 1.2 2.4 2.4 1.4 1.2 2.7 2.5 1.3 1.3 2.4 2.8 1.1 1.4 1.8 3.4 0.7 2.1 0.7 4.4 0 4.9-2.5 7.5-2.4 2.6-6.8 2.6-4.5 0-7.1-2.6-2.6-2.6-2.6-7.5z"/><path fill-rule="evenodd" class="a" d="m22.8 56.8v-40.3h9.3q9.5 0 9.5 9.9v5.3q0 9.9-9.4 9.9h-3.1v15.2zm6.4-20.9h3q1.6 0 2.4-0.9 0.7-0.9 0.7-2.9v-6.1q0-2.1-0.7-2.9-0.8-0.9-2.4-0.9h-3z"/><path fill-rule="evenodd" class="a" d="m44.6 56.8v-40.4h9.6q4.9 0 7.2 2.3 2.2 2.3 2.2 7v3.2q0 6.2-4.1 8.2 4.2 1.8 4.2 8.6v6.4q0 3.1 0.7 4.7h-6.5q-0.6-1.7-0.6-5v-6.3q0-2.7-1-3.9-0.9-1.2-3.1-1.2h-2.2v16.4zm6.3-22.2h2.5q1.9 0 2.9-1 0.9-1 0.9-3.3v-3.9q0-4.2-3.2-4.2h-3.1z"/><path fill-rule="evenodd" class="a" d="m67.9 56.8h6.3v-40.4h-6.3z"/><path fill-rule="evenodd" class="a" d="m78.8 56.8v-40.3h9.7q4.9 0 7.1 2.2 2.3 2.3 2.3 7v1.5q0 6.2-4.1 8.1 4.7 1.8 4.7 8.6v3.3q0 4.7-2.4 7.1-2.5 2.5-7.2 2.5zm6.3-23.9h2.5q1.9 0 2.9-1 0.9-1 0.9-3.3v-2.2q0.1-4.2-3.2-4.2h-3.1zm0 18.2h3.7q1.6 0 2.4-0.9 0.9-0.9 0.9-3.1v-3.5q0-2.8-1-3.9-0.9-1-3.1-1h-2.9z"/><path fill-rule="evenodd" class="a" d="m102.3 56.8v-40.4h17.4v5.8h-11v11.2h8.7v5.8h-8.7v11.8h11v5.8z"/><path fill-rule="evenodd" class="a" d="m0 65h119.8v-5.6h-119.8z"/></svg>
